images/heartFoundationPlaceholder.svg

<svg xmlns="http://www.w3.org/2000/svg" width="179" height="250" viewBox="0 0 179 250">
    <path fill-opacity=".205" d="M166.138 0C173.241 0 179 5.643 179 12.605v224.79c0 6.962-5.759 12.605-12.862 12.605H12.862C5.759 250 0 244.357 0 237.395V12.605C0 5.643 5.759 0 12.862 0zm0 6H12.862C9.046 6 6 8.985 6 12.605v224.79c0 3.62 3.046 6.605 6.862 6.605h153.276c3.816 0 6.862-2.985 6.862-6.605V12.605C173 8.985 169.954 6 166.138 6"/>
    <path fill="#a60606" fill-opacity=".331" d="M89.547 157.812q-7.125-11.062-17.391-23.203-1.687-2.156-2.39-3-6.328-7.781-8.672-12.914t-2.344-10.383q0-7.124 4.008-11.624t10.195-4.5q4.406 0 7.828 2.531t5.391 7.219q.281.609.703 1.734 1.219 3.562 2.672 3.562 1.406 0 2.578-3.375.234-.75.422-1.125 1.828-5.062 5.367-7.804t8.133-2.742q6.187 0 10.195 4.5t4.008 11.624q0 5.157-2.297 10.243t-8.719 13.054q-.843 1.079-3 3.657-10.218 12.328-16.687 22.546"/>
</svg>

<?xml version="1.0" encoding="UTF-8"?>
<!DOCTYPE svg PUBLIC "-//W3C//DTD SVG 1.1//EN" "http://www.w3.org/Graphics/SVG/1.1/DTD/svg11.dtd">
<svg version="1.1" xmlns="http://www.w3.org/2000/svg" xmlns:xlink="http://www.w3.org/1999/xlink" x="0" y="0" width="179" height="250" viewBox="0, 0, 179, 250">
  <g id="Hearts_(dark)" transform="translate(-0, -0)">
    <path d="M166.138,0 C173.241,0 179,5.643 179,12.605 L179,237.395 C179,244.357 173.241,250 166.138,250 L12.862,250 C5.759,250 0,244.357 0,237.395 L0,12.605 C0,5.643 5.759,0 12.862,0 L166.138,0 z M166.138,6 L12.862,6 C9.046,6 6,8.985 6,12.605 L6,237.395 C6,241.015 9.046,244 12.862,244 L166.138,244 C169.954,244 173,241.015 173,237.395 L173,12.605 C173,8.985 169.954,6 166.138,6 z" fill="#000000" fill-opacity="0.205"/>
    <path d="M89.547,157.812 Q82.422,146.75 72.156,134.609 Q70.469,132.453 69.766,131.609 Q63.438,123.828 61.094,118.695 Q58.75,113.562 58.75,108.312 Q58.75,101.188 62.758,96.688 Q66.766,92.188 72.953,92.188 Q77.359,92.188 80.781,94.719 Q84.203,97.25 86.172,101.938 Q86.453,102.547 86.875,103.672 Q88.094,107.234 89.547,107.234 Q90.953,107.234 92.125,103.859 Q92.359,103.109 92.547,102.734 Q94.375,97.672 97.914,94.93 Q101.453,92.188 106.047,92.188 Q112.234,92.188 116.242,96.688 Q120.25,101.188 120.25,108.312 Q120.25,113.469 117.953,118.555 Q115.656,123.641 109.234,131.609 Q108.391,132.688 106.234,135.266 Q96.016,147.594 89.547,157.812 z" fill="#A60606" fill-opacity="0.331"/>
  </g>
</svg>
